X:0252
M:C
L:1/8
Q:1/2=84
P:ABCDC % "DC 3d. Measure" printed at the end
K:A Minor
P:A
E2|A4   ABcd | e2  A2 ({B}A2)GE|G4    GABc|d2G2     BA`GE|\
   A4   ABcd | e2  A2     BA`GE|G2g2 TedcB|A4       A2  :|
P:B
   cBcd efga |Tge``dc     B2 AB|G2g2 TedcB|A4       A2  :|
P:C
eg|a4 (Ta2g)a| b2  a2     a2 ge|dega  g3 a|b2ab     g2 eg|\
   a4   a2ga | b2  a4        ge|g2d2  edcB|A4       A2  :|
P:D
E2|AGAB cBcd | e2  A2     BA`GE|GFGA  B2ge|dedc     B2 AG|\
   cBcd efga | ge``dc     B2 AB|G2g2  edcB|A4       A2  :|

